images/dialpad.svg

<?xml version="1.0" encoding="UTF-8" standalone="no"?>
<!-- Created with Inkscape (http://www.inkscape.org/) -->

<svg
   xmlns:dc="http://purl.org/dc/elements/1.1/"
   xmlns:cc="http://creativecommons.org/ns#"
   xmlns:rdf="http://www.w3.org/1999/02/22-rdf-syntax-ns#"
   xmlns:svg="http://www.w3.org/2000/svg"
   xmlns="http://www.w3.org/2000/svg"
   xmlns:inkscape="http://www.inkscape.org/namespaces/inkscape"
   version="1.1"
   width="30"
   height="30"
   viewBox="0 0 30 30"
   id="svg2">
  <metadata
     id="metadata10">
    <rdf:RDF>
      <cc:Work
         rdf:about="">
        <dc:format>image/svg+xml</dc:format>
        <dc:type
           rdf:resource="http://purl.org/dc/dcmitype/StillImage" />
      </cc:Work>
    </rdf:RDF>
  </metadata>
  <defs
     id="defs8" />
  <path
     d="m 9.493,8.206 -0.022,0.02 c -0.1,0.44 -0.48,0.782 -0.95,0.782 H 6.09 C 5.616,9.008 5.236,8.668 5.135,8.225 L 5.111,8.205 C 4.928,7.25 4.8,6.165 4.75,5 h 5.1 C 9.8,6.165 9.675,7.25 9.49,8.206 z m 7.7,0 -0.022,0.02 c -0.1,0.44 -0.48,0.782 -0.95,0.782 h -2.43 c -0.47,0 -0.85,-0.34 -0.95,-0.783 l -0.02,-0.02 C 12.637,7.249 12.511,6.165 12.461,5 h 5.105 c -0.05,1.165 -0.177,2.25 -0.36,3.206 z m 7.7,0 -0.023,0.02 c -0.102,0.44 -0.48,0.782 -0.954,0.782 h -2.433 c -0.474,0 -0.853,-0.34 -0.953,-0.783 L 20.508,8.205 C 20.323,7.249 20.196,6.165 20.146,5 h 5.104 c -0.048,1.165 -0.176,2.25 -0.358,3.206 z m -15.4,8 -0.022,0.02 c -0.1,0.444 -0.48,0.78 -0.95,0.782 H 6.09 C 5.614,17.006 5.234,16.67 5.133,16.225 L 5.113,16.207 C 4.928,15.247 4.803,14.164 4.753,13 h 5.104 c -0.05,1.164 -0.176,2.247 -0.36,3.207 z m 7.7,0 -0.022,0.02 c -0.1,0.444 -0.48,0.78 -0.95,0.782 h -2.43 c -0.47,-0.002 -0.85,-0.338 -0.95,-0.783 l -0.02,-0.018 C 12.637,15.247 12.511,14.164 12.461,13 h 5.105 c -0.05,1.164 -0.177,2.247 -0.36,3.207 z m 7.7,0 -0.023,0.02 c -0.102,0.444 -0.48,0.78 -0.954,0.782 H 21.483 C 21.009,17.006 20.63,16.67 20.53,16.225 L 20.508,16.207 C 20.324,15.247 20.198,14.164 20.148,13 h 5.104 c -0.05,1.164 -0.178,2.247 -0.36,3.207 z m -15.4,8 -0.022,0.02 c -0.1,0.442 -0.48,0.78 -0.95,0.783 H 6.09 c -0.476,-0.01 -0.856,-0.35 -0.957,-0.79 l -0.02,-0.02 c -0.185,-0.96 -0.31,-2.04 -0.36,-3.21 h 5.104 c -0.05,1.164 -0.176,2.245 -0.36,3.205 z m 7.7,0 -0.022,0.02 c -0.1,0.442 -0.48,0.78 -0.95,0.783 h -2.43 c -0.47,-0.01 -0.85,-0.35 -0.95,-0.79 l -0.02,-0.02 c -0.184,-0.96 -0.31,-2.04 -0.36,-3.21 h 5.105 c -0.05,1.164 -0.177,2.245 -0.36,3.205 z m 7.7,0 -0.023,0.02 c -0.102,0.442 -0.48,0.78 -0.954,0.783 h -2.433 c -0.474,-0.01 -0.853,-0.35 -0.953,-0.79 l -0.022,-0.02 c -0.184,-0.96 -0.31,-2.04 -0.36,-3.21 h 5.104 c -0.05,1.164 -0.178,2.245 -0.36,3.205 z"
     inkscape:connector-curvature="0"
     id="path4" />
</svg>

<?xml version="1.0" encoding="iso-8859-1"?>
<!-- Generator: Adobe Illustrator 16.0.4, SVG Export Plug-In . SVG Version: 6.00 Build 0)  -->
<!DOCTYPE svg PUBLIC "-//W3C//DTD SVG 1.1//EN" "http://www.w3.org/Graphics/SVG/1.1/DTD/svg11.dtd">
<svg version="1.1" xmlns="http://www.w3.org/2000/svg" xmlns:xlink="http://www.w3.org/1999/xlink" x="0px" y="0px" width="30px"
	 height="30px" viewBox="0 0 30 30" style="enable-background:new 0 0 30 30;" xml:space="preserve">
<g id="Dialer_x5F_Dailpad">
	<path style="fill-rule:evenodd;clip-rule:evenodd;" d="M9.493,8.206L9.471,8.225C9.37,8.667,8.991,9.008,8.517,9.008H8.516h-2.43
		H6.085c-0.474,0-0.854-0.341-0.955-0.783L5.108,8.206C4.925,7.249,4.798,6.165,4.748,5h5.105C9.803,6.165,9.677,7.249,9.493,8.206z
		 M17.192,8.206l-0.021,0.019c-0.102,0.442-0.481,0.783-0.956,0.783l0,0h-2.429h-0.001c-0.475,0-0.854-0.341-0.955-0.783
		l-0.022-0.019c-0.184-0.957-0.31-2.041-0.36-3.206h5.105C17.502,6.165,17.376,7.249,17.192,8.206z M24.892,8.206l-0.022,0.019
		c-0.102,0.442-0.479,0.783-0.954,0.783h-0.002h-2.428h-0.003c-0.474,0-0.853-0.341-0.953-0.783l-0.022-0.019
		C20.323,7.249,20.196,6.165,20.146,5h5.104C25.202,6.165,25.074,7.249,24.892,8.206z M9.493,16.207l-0.022,0.018
		c-0.101,0.445-0.48,0.781-0.955,0.783H8.516h-2.43H6.085c-0.474-0.002-0.854-0.338-0.955-0.783l-0.022-0.018
		c-0.184-0.96-0.31-2.043-0.36-3.207h5.105C9.803,14.164,9.677,15.247,9.493,16.207z M17.192,16.207l-0.021,0.018
		c-0.102,0.445-0.481,0.781-0.956,0.783l0,0h-2.429h-0.001c-0.475-0.002-0.854-0.338-0.955-0.783l-0.022-0.018
		c-0.184-0.96-0.31-2.043-0.36-3.207h5.105C17.502,14.164,17.376,15.247,17.192,16.207z M24.892,16.207l-0.022,0.018
		c-0.102,0.445-0.479,0.781-0.954,0.783h-0.002h-2.428h-0.003c-0.474-0.002-0.853-0.338-0.953-0.783l-0.022-0.018
		c-0.184-0.96-0.311-2.043-0.36-3.207h5.104C25.202,14.164,25.074,15.247,24.892,16.207z M9.493,24.207l-0.022,0.019
		c-0.101,0.442-0.48,0.78-0.955,0.783H8.516h-2.43H6.085c-0.474-0.003-0.854-0.341-0.955-0.783l-0.022-0.019
		c-0.184-0.96-0.31-2.041-0.36-3.207h5.105C9.803,22.166,9.677,23.247,9.493,24.207z M17.192,24.207l-0.021,0.019
		c-0.102,0.442-0.481,0.78-0.956,0.783l0,0h-2.429h-0.001c-0.475-0.003-0.854-0.341-0.955-0.783l-0.022-0.019
		c-0.184-0.96-0.31-2.041-0.36-3.207h5.105C17.502,22.166,17.376,23.247,17.192,24.207z M24.892,24.207l-0.022,0.019
		c-0.102,0.442-0.479,0.78-0.954,0.783h-0.002h-2.428h-0.003c-0.474-0.003-0.853-0.341-0.953-0.783l-0.022-0.019
		c-0.184-0.96-0.311-2.041-0.36-3.207h5.104C25.202,22.166,25.074,23.247,24.892,24.207z"/>
</g>
<g id="&#x5716;&#x5C64;_1">
</g>
</svg>
